X:56
T:A la claire fontaine
R:Chanson
O:France
B:Le livre des Chansons (Henri Davenson) n°56
Z:<anamnese@caramail.com> -- http://anamnese.fr.st
M:6/8
L:1/8
Q:1/4=90
K:Bb
F G A | B3 d3 | c2 c F G A | B3 d3 | c2 z c c c | c3 e3 |!
d2 c B A G | F3 G3 | F2 z D2 E | F2 F B2 c | d3 d d e |!
d3 c c c | d c B D2 E | F2 F B2 c | d3 B A B | c2 d e-d c | B6 ||
W:En revenant des noces, j'étais bien fatiguée,
W:Au bord d'une fontaine je me suis reposée,
W:Ah ! Je l'attends, je l'attends, je l'attends,
W:Celui que j'aime, celui que mon coeur aime
W:Ah ! Je l'attends, je l'attends, je l'attends,
W:Celui que mon coeur aime tant.
W:
W:Et l'eau était si claire que je m'y suis baignée ;
W:A la feuille du chêne je me suis essuyée.
W:Sur la plus haute branche le rossignol chantait :
W:Chante, rossignol, chante, toi qui a le coeur gai !
W:Le mien n'est pas de même, il est bien affligé : /.../

